<?xml version="1.0" encoding="UTF-8"?>
<map version="1.10" tiledversion="1.12.2" orientation="orthogonal" renderorder="right-down" width="50" height="40" tilewidth="16" tileheight="16" infinite="0" nextlayerid="8" nextobjectid="17">
 <editorsettings>
  <export target="route-02.json" format="json"/>
 </editorsettings>
 <tileset firstgid="1" source="../tilesets/route-02/route-02-terrain.tsx"/>
 <tileset firstgid="9729" source="../tilesets/route-02/route-02-collision.tsx"/>
 <layer id="1" name="Ground" width="50" height="40">
  <data encoding="csv">
1,1,1,1,1,1,1,1,1,1,1,1,1,1,1,1,1,1,1,1,1,1,1,1,1,2176,2176,2176,2176,2176,2176,2176,2176,2176,2176,1,1,1342,1343,1343,1343,1344,1,1,1,1,1,1,1,1,
1,1,1,1,1,1,1,1,1,1,1,1,1,1,1,1,1,1,1,1,1,1,1,1,1,2176,2176,2176,2176,2176,2176,2176,2176,2176,2176,1,1,1350,1351,1351,1351,1352,1,1,1,1,1,1,1,1,
1,1,1,1,1,1,1,1,1,1,1,1,1,1,1,1,1,1,1,1,1,1,1,1,1,2176,2176,2176,2176,2176,2176,2176,2176,2176,2176,1,1,1350,1351,1351,1351,1352,1,1,1,1,1,1,1,1,
1,1,1,1,1,1,1,1,1,1,1,1,1,1,1,1,1,1,1,1,1,1,1,1,1,2176,2176,2176,2176,2176,2176,2176,2176,2176,2176,1,1,1350,1351,1351,1351,1352,1,1,1,1,1,1,1,1,
1,1,1,1,1,1,1,1,1,1,1,1,1,1,1,1,1,1,1,1,1,1,1,1,1,2176,2176,2176,2176,2176,2176,2176,2176,2176,2176,1,1,1350,1351,1351,1351,1352,1,1,1,1,1,1,1,1,
1,1,1,1,1,1,1,1,1,1,1,1,1,1,1,1,1,1,1,1,1,1,1,1,1,2176,2176,2176,2176,2176,2176,2176,2176,2176,2176,1,1,1350,1351,1351,1351,1352,1,1,1,1,1,1,1,1,
1,1,1,1,1,1,1,1,1,1,1,1,1,1,1,1,1,1,1,1,1,1,1,1,1,2176,2176,2176,2176,2176,2176,2176,2176,2176,2176,1,1,1350,1351,1351,1351,1352,1,1,1,1,1,1,1,1,
1,1,1,1,1,1,0,1,1,1,1,1,1,1,1,1,1,1,1,1,1,1,1,1,1,2176,2176,2176,2176,2176,2176,2176,2176,2176,2176,1,1,1350,1351,1351,1351,1352,1,1,1,1,1,1,1,1,
1,1,1,1,1,1,1,1,1,1,1,1,1,1,1,1,1,1,1,1,1,1,1,1,1,2176,2176,2176,2176,2176,2176,2176,2176,2176,2176,1,1,1350,1351,1351,1351,1352,1,1,1,1,1,1,1,1,
1,1,1,1,1,1,1,1,1,1,1,1,1,1,1,1,1,1,1,1,1,1,1,1,1,2176,2176,2176,2176,2176,2176,2176,2176,2176,2176,1,1,1350,1351,1351,1351,1352,1,1,1,1,1,1,1,1,
1,1,1,1,1,1,1,1,1,1,1,1,1,1,1,1,1,1,1,1,1,1,1,1,1,2176,2176,2176,2176,2176,2176,2176,2176,2176,2176,1,1,1350,1351,1351,1351,1352,1,1,1,1,1,1,1,1,
1,1,1,1,1,1,1,1,1,1,1,1,1,1,1,1,1,1,1,1,1,1,1,1,1,2176,2176,2176,2176,2176,2176,2176,2176,2176,2176,1,1,1350,1351,1351,1351,1352,1,1,1,1,1,1,1,1,
1,1,1,1,1,1,1,1342,1343,1343,1343,1344,1,1,1,1,1,1,1,1,1,1,1,1,1,2176,2176,2176,2176,2176,2176,2176,2176,2176,2176,1,1,1350,1351,1351,1351,1352,1,1,1,1,1,1,1,1,
1,1,1,1,1,1,1,1350,1351,1351,1351,1352,1,1,1,1,1,1,1,1,1,1,1,1,1,2176,2176,2176,2176,2176,2176,2176,2176,2176,2176,1,1,1350,1351,1351,1351,1352,1,1,1,1,1,1,1,1,
1,1,1,1,1,1,1,1350,1351,1351,1351,1352,1,1,1,1,1,1,1,1,1,1,1,1,1,2176,2176,2176,2176,2176,2176,2176,2176,2176,2176,1,1,1350,1351,1351,1351,1352,1,1,1,1,1,1,1,1,
1,1,1,1,1,1,1,1358,1351,1351,1351,1351,1343,1343,1343,1344,1,1,1,1,1,1,1,1,1,2176,2176,2176,2176,2176,2176,2176,2176,2176,2176,1,1,1350,1351,1351,1351,1351,1343,1343,1343,1344,1,1,1,1,
1,1,1,1,1,1,1,1,1350,1351,1351,1351,1351,1351,1351,1352,1,1,1,1,1,1,1,1,1,2176,2176,2176,2176,2176,2176,2176,2176,2176,2176,1,1,1350,1351,1351,1351,1351,1351,1351,1351,1352,1,1,1,1,
1,1,1,1,1,1,1,1,1350,1351,1351,1351,1351,1351,1351,1352,1,1,1,1,1,1,1,1,1,2176,2176,2176,2176,2176,2176,2176,2176,2176,2176,1,1,1350,1351,1351,1351,1351,1351,1351,1351,1352,1,1,1,1,
1,1,1,1,1,1,1,1,1358,1359,1359,1359,1359,1359,1359,1360,1,1,1,1,1,1,1,1,1,2176,2176,2176,2176,2176,2176,2176,2176,2176,2176,1,1,1350,1351,1351,1351,1351,1359,1359,1359,1360,1,1,1,1,
1,1,1,1,1,1,1,1,1,1,1,1,1,1,1,1,1,1,1,1,1,1,1,1,1,2176,2176,2176,2176,2176,2176,2176,2176,2176,2176,1,1,1350,1351,1351,1351,1352,1,1,1,1,1,1,1,1,
1,1,1,1,1,1,1,1,1,1,1,1,1,1342,1343,1343,1343,1343,1343,1343,1343,1343,1343,1343,1344,2176,2176,2176,2176,2176,2176,2176,2176,2176,2176,1,1342,1351,1351,1351,1351,1352,1,1,1,1,1,1,1,1,
1,1,1,1,1,1,1,1,1,1,1,1,1,1350,1351,1351,1351,1351,1351,1351,1351,1351,1351,1351,1352,2176,2176,2176,2176,2176,2176,2176,2176,2176,2176,1,1350,1351,1351,1351,1351,1352,1,1,1,1,1,1,1,1,
1,1,1,1,1,1,1,1,1,1,1,1,1,1350,1351,1351,1351,1351,1351,1351,1351,1351,1351,1351,1352,2176,2176,2176,2176,2176,2176,2176,2176,2176,2176,1,1350,1351,1351,1351,1351,1352,1,1,1,1,1,1,1,1,
1,1,1,1,1,1,1,1,1,1,1,1,1,1350,1351,1351,1351,1351,1351,1351,1351,1351,1351,1351,1352,2176,2176,2176,2176,2176,2176,2176,2176,2176,2176,1,1350,1351,1351,1351,1351,1352,1,1,1,1,1,1,1,1,
1,1,1,1,1,1,1,1,1,1,1,1,1,1350,1351,1351,1351,1351,1351,1351,1351,1351,1351,1351,1352,2176,2176,2176,2176,2176,2176,2176,2176,2176,2176,1,1358,1359,1359,1359,1359,1360,1,1,1,1,1,1,1,1,
1,1,1,1,1,1,1,1,1,1,1,1,1,1350,1351,1351,1351,1351,1351,1351,1351,1351,1351,1351,1352,2176,2176,2176,2176,2176,2176,2176,2176,2176,2176,1,1,1,1,1,1,1,1,1,1,1,1,1,1,1,
1,1,1,1,1,1,1,1,1,1,1,1,1,1350,1351,1351,1351,1351,1351,1351,1351,1351,1351,1351,1352,2176,2176,2176,2176,2176,2176,2176,2176,2176,2176,1,1,1,1,1,1,1,1,1,1,1,1,1,1,1,
1,1,1,1,1,1,1,1,1,1,1,1,1,1350,1351,1351,1351,1351,1351,1351,1351,1351,1351,1351,1352,2176,2176,2176,2176,2176,2176,2176,2176,2176,2176,1,1,1,1,1,1,1,1,1,1,1,1,1,1,1,
1,1,1,1,1,1,1,1,1,1,1,1,1,1350,1351,1351,1351,1351,1359,1359,1359,1359,1359,1359,1360,2176,2176,2176,2176,2176,2176,2176,2176,2176,2176,1,1,1,1,1,1,1,1,1,1,1,1,1,1,1,
1,1,1,1,1,1,1,1,1,1,1,1,1,1350,1351,1351,1351,1352,1,1,1,1,1,1,1,2176,2176,2176,2176,2176,2176,2176,2176,2176,2176,1,1,1,1,1,1,1,1,1,1,1,1,1,1,1,
1,1,1,1,1,1,1,1,1,1,1,1,1,1350,1351,1351,1351,1352,1,1,1,1,1,1,1,2176,2176,2176,2176,2176,2176,2176,2176,2176,2176,1,1,1,1,1,1,1,1,1,1,1,1,1,1,1,
1,1,1,1,1,1,1,1,1,1,1,1,1,1350,1351,1351,1351,1352,1,1,1,1,1,1,1,2176,2176,2176,2176,2176,2176,2176,2176,2176,2176,1,1,1,1,1,1,1,1,1,1,1,1,1,1,1,
1,1,1,1,1,1,1,1,1,1,1,1,1,1350,1351,1351,1351,1352,1,1,1,1,1,1,1,2176,2176,2176,2176,2176,2176,2176,2176,2176,2176,1,1,1,1,1,1,1,1,1,1,1,1,1,1,1,
1,1,1,1,1,1,1,1,1,1,1,1,1,1350,1351,1351,1351,1352,1,1,1,1,1,1,1,2176,2176,2176,2176,2176,2176,2176,2176,2176,2176,1,1,1,1,1,1,1,1,1,1,1,1,1,1,1,
1,1,1,1,1,1,1,1,1,1,1,1,1,1350,1351,1351,1351,1352,1,1,1,1,1,1,1,2176,2176,2176,2176,2176,2176,2176,2176,2176,2176,1,1,1,1,1,1,1,1,1,1,1,1,1,1,1,
1,1,1,1,1,1,1,1,1,1,1,1,1,1350,1351,1351,1351,1352,1,1,1,1,1,1,1,2176,2176,2176,2176,2176,2176,2176,2176,2176,2176,1,1,1,1,1,1,1,1,1,1,1,1,1,1,1,
1,1,1,1,1,1,1,1,1,1,1,1,1,1350,1351,1351,1351,1352,1,1,1,1,1,1,1,2176,2176,2176,2176,2176,2176,2176,2176,2176,2176,1,1,1,1,1,1,1,1,1,1,1,1,1,1,1,
1,1,1,1,1,1,1,1,1,1,1,1,1,1350,1351,1351,1351,1352,1,1,1,1,1,1,1,2176,2176,2176,2176,2176,2176,2176,2176,2176,2176,1,1,1,1,1,1,1,1,1,1,1,1,1,1,1,
1,1,1,1,1,1,1,1,1,1,1,1,1,1350,1351,1351,1351,1352,1,1,1,1,1,1,1,2176,2176,2176,2176,2176,2176,2176,2176,2176,2176,1,1,1,1,1,1,1,1,1,1,1,1,1,1,1,
1,1,1,1,1,1,1,1,1,1,1,1,1,1358,1359,1359,1359,1360,1,1,1,1,1,1,1,2176,2176,2176,2176,2176,2176,2176,2176,2176,2176,1,1,1,1,1,1,1,1,1,1,1,1,1,1,1
</data>
 </layer>
 <layer id="2" name="GroundDetails" width="50" height="40">
  <data encoding="csv">
0,0,0,0,0,0,0,0,0,0,0,0,0,0,0,0,0,0,0,0,0,0,0,0,0,1558,0,0,0,0,0,0,0,0,1560,0,0,0,0,0,0,0,0,0,0,0,0,0,0,0,
0,0,0,0,0,0,0,0,0,0,0,0,0,0,0,0,0,0,0,0,0,0,0,0,0,1558,0,0,0,0,0,0,0,0,1560,0,0,0,0,0,0,0,0,0,0,0,0,0,0,0,
0,0,0,0,0,0,0,0,0,0,0,0,0,0,0,0,0,0,0,0,0,0,0,0,0,1558,0,0,0,0,0,0,0,0,1560,0,0,0,0,0,0,0,0,0,0,0,0,0,0,0,
0,0,0,0,0,0,0,0,0,0,0,0,0,0,0,0,0,0,0,0,0,0,0,0,0,1558,0,0,0,0,0,0,0,0,1560,0,0,0,0,0,0,0,0,0,0,0,0,0,0,0,
0,0,0,0,0,0,0,0,0,0,0,0,0,0,0,0,0,0,0,0,0,0,0,0,0,1558,0,0,0,0,0,0,0,0,1560,0,0,0,0,0,0,0,0,0,0,0,0,0,0,0,
0,0,0,2767,2767,2767,2767,2767,2767,2767,2767,0,0,0,0,0,0,0,0,0,0,0,0,0,0,1558,0,0,0,0,0,0,0,0,1560,0,0,0,0,0,0,0,0,0,0,0,0,0,0,0,
0,0,0,2767,2767,2767,2767,2767,2767,2767,2767,0,0,0,0,0,0,0,0,13,0,0,0,0,0,1558,0,0,0,0,0,0,0,0,1560,0,0,0,0,0,0,0,0,0,0,22,0,0,0,0,
0,0,0,2767,2767,2767,2767,2767,2767,2767,2767,0,0,2767,2767,2767,2767,2767,2767,2767,2767,0,0,0,0,1558,0,0,0,0,0,0,0,0,1560,0,0,0,0,0,0,0,0,0,0,0,0,0,0,0,
0,0,0,2767,2767,2767,2767,2767,2767,2767,2767,0,0,2767,2767,2767,2767,2767,2767,2767,2767,0,0,0,0,1558,0,0,0,0,0,0,0,0,1560,0,0,0,0,0,0,0,0,0,0,0,0,0,0,0,
0,0,0,2767,2767,2767,2767,2767,2767,2767,2767,0,0,2767,2767,2767,2767,2767,2767,2767,2767,0,0,0,0,1558,0,0,0,0,0,0,0,0,1560,0,20,0,0,0,0,0,13,0,0,0,0,0,0,0,
0,0,0,0,0,0,0,0,0,0,0,0,0,2767,2767,2767,2767,2767,2767,2767,2767,0,0,0,0,1558,0,0,0,0,0,0,0,0,1560,0,0,0,0,0,0,0,0,0,0,0,0,0,0,0,
0,0,0,0,0,0,0,0,0,0,0,0,0,2767,2767,2767,2767,2767,2767,2767,2767,0,0,0,0,1558,0,0,0,0,0,0,0,0,1560,0,0,0,0,0,0,0,0,0,0,0,0,0,0,0,
0,0,0,0,0,0,0,0,0,0,0,0,0,0,0,0,0,20,0,0,0,0,0,0,0,1558,0,0,0,0,0,0,0,0,1560,0,0,0,0,0,0,0,22,0,0,0,0,0,0,0,
0,0,0,0,0,0,0,0,0,0,0,0,0,0,0,0,0,0,0,0,0,0,0,0,0,1558,0,0,0,0,0,0,0,0,1560,0,0,0,0,0,0,0,0,0,0,0,0,0,0,0,
0,0,0,0,0,0,0,0,0,0,0,0,0,0,0,0,0,0,0,0,0,0,0,0,0,1558,0,0,0,0,0,0,0,0,1560,0,0,0,0,0,0,0,0,0,0,0,0,0,0,0,
0,0,0,0,0,0,0,0,0,0,0,0,0,0,0,0,0,0,0,0,0,0,0,0,0,1558,0,0,0,0,0,0,0,0,1560,0,0,0,0,0,0,0,0,0,0,0,0,0,0,0,
0,0,0,0,20,13,0,13,0,0,0,0,0,0,0,0,0,0,0,0,0,0,0,0,0,1558,0,0,0,0,0,0,0,0,1560,0,0,0,0,0,0,0,0,0,0,0,0,0,0,0,
0,0,0,0,0,0,0,0,0,0,0,0,0,0,0,0,0,0,0,0,0,0,0,0,0,1558,0,0,0,0,0,0,0,0,1560,0,0,0,0,0,0,0,0,0,0,0,0,0,0,0,
0,0,0,0,0,0,0,0,0,0,0,0,0,0,0,0,0,0,0,0,0,0,0,0,0,0,0,0,0,0,0,0,0,0,0,0,0,0,0,0,0,0,0,0,0,0,0,0,0,0,
0,0,0,0,0,0,0,0,0,0,0,0,0,0,0,22,0,0,0,0,0,0,0,13,0,0,0,0,0,0,0,0,0,0,0,0,0,0,0,0,0,0,0,0,0,0,0,0,0,0,
0,0,0,0,0,0,0,0,0,0,0,0,0,0,0,0,0,0,0,0,0,0,0,0,0,0,0,0,0,0,0,0,0,0,0,0,0,0,0,0,0,0,0,0,0,0,0,0,0,0,
0,0,0,0,0,0,0,0,0,0,0,0,0,0,0,0,0,0,0,0,0,0,0,0,0,0,0,0,0,0,0,0,0,0,0,0,0,0,0,0,0,0,0,0,0,0,0,0,0,0,
0,0,0,0,0,0,0,0,0,0,0,0,0,0,0,0,0,0,0,0,0,0,0,0,0,0,0,0,0,0,0,0,0,0,0,0,0,0,0,0,0,0,0,0,0,0,0,0,0,0,
0,0,0,0,0,0,0,0,0,0,0,0,0,0,0,0,0,0,0,0,0,0,0,0,0,1558,0,0,0,0,0,0,0,0,1560,0,0,0,0,0,0,0,0,0,0,0,0,0,0,0,
0,0,0,0,0,0,0,0,0,0,0,0,0,0,0,0,0,0,0,0,0,0,0,0,0,1558,0,0,0,0,0,0,0,0,1560,0,0,0,0,0,0,0,0,0,0,0,0,0,0,0,
0,0,0,0,0,0,0,0,0,0,0,0,20,0,0,0,0,0,0,0,0,0,0,0,0,1558,0,0,0,0,0,0,0,0,1560,0,0,0,0,0,0,0,0,0,0,0,0,0,0,0,
0,0,0,0,0,0,0,0,0,0,0,0,0,0,0,0,0,0,0,0,0,0,0,0,0,1558,0,0,0,0,0,0,0,0,1560,0,0,0,0,0,0,0,0,0,0,0,0,0,0,0,
0,0,0,0,0,0,0,0,0,0,0,0,0,0,0,0,0,0,0,0,0,0,0,0,0,1558,0,0,0,0,0,0,0,0,1560,0,0,0,0,0,0,0,0,0,0,0,0,0,0,0,
0,0,0,0,0,0,0,0,0,0,0,0,0,0,0,0,0,0,0,0,0,0,0,0,0,1558,0,0,0,0,0,0,0,0,1560,0,0,0,0,0,2767,2767,2767,2767,2767,2767,2767,0,0,0,
0,0,0,2767,2767,2767,2767,2767,2767,2767,2767,0,0,0,0,0,0,0,0,0,0,0,0,0,0,1558,0,0,0,0,0,0,0,0,1560,0,0,0,0,0,2767,2767,2767,2767,2767,2767,2767,0,0,0,
0,0,0,2767,2767,2767,2767,2767,2767,2767,2767,0,0,0,0,0,0,0,0,0,0,0,0,0,0,1558,0,0,0,0,0,0,0,0,1560,0,0,0,0,0,2767,2767,2767,2767,2767,2767,2767,0,0,0,
0,0,0,2767,2767,2767,2767,2767,2767,2767,2767,0,0,0,0,0,0,0,0,0,0,0,0,0,0,1558,0,0,0,0,0,0,0,0,1560,0,0,0,0,0,2767,2767,2767,2767,2767,2767,2767,0,0,0,
0,0,0,2767,2767,2767,2767,2767,2767,2767,2767,0,0,0,0,0,0,0,0,0,0,0,0,0,0,1558,0,0,0,0,0,0,0,0,1560,0,0,0,0,0,2767,2767,2767,2767,2767,2767,2767,0,0,0,
0,0,0,2767,2767,2767,2767,2767,2767,2767,2767,0,0,0,0,0,0,0,0,0,0,0,0,0,0,1558,0,0,0,0,0,0,0,0,1560,0,0,0,0,0,0,0,0,0,0,0,0,0,0,0,
0,0,0,0,0,0,0,0,0,0,0,0,0,0,0,0,0,0,0,0,0,0,0,0,0,1558,0,0,0,0,0,0,0,0,1560,0,0,0,0,0,0,0,0,0,0,0,0,0,0,0,
0,0,0,0,0,0,0,0,0,0,0,0,0,0,0,0,0,0,0,0,0,0,0,0,0,1558,0,0,0,0,0,0,0,0,1560,0,0,0,0,0,0,0,0,0,0,0,0,0,0,0,
0,0,0,0,0,0,0,0,0,0,0,0,0,0,0,0,0,0,0,0,0,0,0,0,0,1558,0,0,0,0,0,0,0,0,1560,0,0,0,0,0,0,0,0,0,0,0,0,0,0,0,
0,0,0,0,0,0,0,0,0,0,0,0,0,0,0,0,0,0,0,0,0,0,0,0,0,1558,0,0,0,0,0,0,0,0,1560,0,0,0,0,0,0,0,0,0,0,0,0,0,0,0,
0,0,0,0,0,0,0,0,0,0,0,0,0,0,0,0,0,0,0,0,0,0,0,0,0,1558,0,0,0,0,0,0,0,0,1560,0,0,0,0,0,0,0,0,0,0,0,0,0,0,0,
0,0,0,0,0,0,0,0,0,0,0,0,0,0,0,0,0,0,0,0,0,0,0,0,0,1558,0,0,0,0,0,0,0,0,1560,0,0,0,0,0,0,0,0,0,0,0,0,0,0,0
</data>
 </layer>
 <layer id="3" name="Buildings" width="50" height="40">
  <data encoding="csv">
0,0,0,0,0,0,0,0,0,0,0,0,0,0,0,0,0,0,0,0,0,0,0,0,0,0,0,0,0,0,0,0,0,0,0,0,0,0,0,0,0,0,0,0,0,0,0,0,0,0,
0,0,0,0,0,0,0,0,0,0,0,0,0,0,0,0,0,0,0,0,0,0,0,0,0,0,0,0,0,0,0,0,0,0,0,0,0,0,0,0,0,0,0,0,0,0,0,0,0,0,
2609,2610,2611,2609,2610,2611,2609,2610,2611,2609,2610,2611,2609,2610,2611,2609,2610,2611,2609,2610,2611,2609,2610,2611,0,0,0,0,0,0,0,0,0,0,0,0,0,0,0,0,0,0,2609,2610,2611,0,0,2609,2610,2611,
2617,2618,2619,2617,2618,2619,2617,2618,2619,2617,2618,2619,2617,2618,2619,2617,2618,2619,2617,2618,2619,2617,2618,2619,0,0,0,0,0,0,0,0,0,0,0,0,0,0,0,0,0,0,2617,2618,2619,0,0,2617,2618,2619,
0,0,0,0,0,0,0,0,0,0,0,0,0,0,0,0,0,0,0,0,0,0,0,0,0,0,0,0,0,0,0,0,0,0,0,0,0,0,0,0,0,0,0,0,0,0,0,0,0,0,
0,0,0,0,0,0,0,0,0,0,0,0,0,0,0,0,0,0,0,0,0,0,0,0,0,0,0,0,0,0,0,0,0,0,0,0,0,0,0,0,0,0,0,0,0,0,0,0,0,0,
2609,2610,2611,0,0,0,0,0,0,0,0,0,0,0,0,0,0,0,0,0,0,0,0,0,0,0,0,0,0,0,0,0,0,0,0,0,0,0,0,0,0,0,0,0,0,0,0,2609,2610,2611,
2617,2618,2619,0,0,0,0,0,0,0,0,0,0,0,0,0,0,0,0,0,0,0,0,0,0,0,0,0,0,0,0,0,0,0,0,0,0,0,0,0,0,0,0,0,0,0,0,2617,2618,2619,
0,0,0,0,0,0,0,0,0,0,0,0,0,0,0,0,0,0,0,0,0,0,0,0,0,0,0,0,0,0,0,0,0,0,0,0,0,0,0,0,0,0,0,0,0,0,0,0,0,0,
0,0,0,0,0,0,0,0,0,0,0,0,0,0,0,0,0,0,0,0,0,0,0,0,0,0,0,0,0,0,0,0,0,0,0,0,0,0,0,0,0,0,0,0,0,0,0,0,0,0,
2609,2610,2611,0,0,0,0,0,0,0,0,0,0,0,0,0,0,0,0,0,0,0,0,0,0,0,0,0,0,0,0,0,0,0,0,0,0,0,0,0,0,0,0,0,0,0,0,2609,2610,2611,
2617,2618,2619,0,0,0,0,0,0,0,0,0,0,0,0,0,0,0,0,0,0,0,0,0,0,0,0,0,0,0,0,0,0,0,0,0,0,0,0,0,0,0,0,0,0,0,0,2617,2618,2619,
0,0,0,0,0,0,0,0,0,0,0,0,0,0,0,0,0,0,0,0,0,0,0,0,0,0,0,0,0,0,0,0,0,0,0,0,0,0,0,0,0,0,0,0,0,0,0,0,0,0,
0,0,0,0,0,0,0,0,0,0,0,0,0,0,0,0,0,0,0,0,0,0,0,0,0,0,0,0,0,0,0,0,0,0,0,0,0,0,0,0,0,0,0,0,0,0,0,0,0,0,
2609,2610,2611,0,0,0,0,0,0,0,0,0,0,0,0,0,0,0,0,0,0,0,0,0,0,0,0,0,0,0,0,0,0,0,0,0,0,0,0,0,0,0,0,0,0,0,0,2609,2610,2611,
2617,2618,2619,0,0,0,0,0,0,0,0,0,0,0,0,0,0,0,0,0,0,0,0,0,0,0,0,0,0,0,0,0,0,0,0,0,0,0,0,0,0,0,0,0,0,0,0,2617,2618,2619,
0,0,0,0,0,0,0,0,0,0,0,0,0,0,0,0,0,0,2609,2610,2611,0,0,0,0,0,0,0,0,0,0,0,0,0,0,0,0,0,0,0,0,0,0,0,0,0,0,0,0,0,
0,0,0,0,0,0,0,0,0,0,0,0,0,0,0,0,0,0,2617,2618,2619,0,0,0,0,0,0,0,0,0,0,0,0,0,0,0,0,0,0,0,0,0,0,0,0,0,0,0,0,0,
2609,2610,2611,0,0,0,0,0,0,0,0,0,0,0,0,0,0,0,0,0,0,0,0,0,1026,1027,1027,1027,1027,1027,1027,1028,995,995,995,996,0,0,0,0,0,0,0,0,0,0,0,2609,2610,2611,
2617,2618,2619,0,0,0,0,0,0,0,0,0,0,0,0,0,0,0,0,0,0,0,0,0,1034,1035,1035,1035,1035,1035,1035,1036,1003,1003,1003,1004,0,0,0,0,0,0,0,0,0,0,0,2617,2618,2619,
0,0,0,0,0,2609,2610,2611,0,0,0,0,0,0,0,0,0,0,0,0,0,0,0,0,1042,1043,1043,1043,1043,1043,1043,1044,1043,1043,1043,1044,0,0,0,0,0,0,0,0,0,0,0,0,0,0,
0,0,0,0,0,2617,2618,2619,0,0,0,0,0,0,0,0,0,0,0,0,0,0,0,0,1050,1051,1051,1051,1051,1051,1051,1052,1051,1051,1051,1052,0,0,0,0,0,0,0,0,0,0,0,0,0,0,
2609,2610,2611,0,0,0,0,0,0,0,0,0,0,0,0,0,0,0,0,0,0,0,0,0,1058,1059,1059,1059,1059,1059,1059,1060,1059,1059,1059,1060,0,0,0,0,0,0,0,0,0,0,0,2609,2610,2611,
2617,2618,2619,0,0,0,0,0,0,0,0,0,0,0,0,0,0,0,0,0,0,0,0,0,0,0,0,0,0,0,0,0,0,0,0,0,0,0,0,0,0,0,0,0,2609,2610,2611,2617,2618,2619,
0,0,0,0,0,0,0,0,0,0,0,0,0,0,0,0,0,0,0,0,0,0,0,0,0,0,0,0,0,0,0,0,0,0,0,0,0,0,0,0,0,0,0,0,2617,2618,2619,0,0,0,
0,0,0,0,0,0,0,0,0,0,0,0,0,0,0,0,0,0,0,0,0,0,0,0,0,0,0,0,0,0,0,0,0,0,0,0,0,0,0,0,0,0,0,0,0,0,0,0,0,0,
2609,2610,2611,0,0,0,0,0,0,0,0,0,0,0,0,0,0,0,0,0,0,0,0,0,0,0,0,0,0,0,0,0,0,0,0,0,0,0,0,0,0,0,0,0,0,0,0,2609,2610,2611,
2617,2618,2619,0,0,0,0,0,0,0,0,0,0,0,0,0,0,0,0,0,0,0,0,0,0,0,0,0,0,0,0,0,0,0,0,0,0,0,0,0,0,0,0,0,0,0,0,2617,2618,2619,
0,0,0,0,0,0,0,0,0,0,0,0,0,0,0,0,0,0,0,0,0,0,0,0,0,0,0,0,0,0,0,0,0,0,0,0,0,0,0,0,0,0,0,0,0,0,0,0,0,0,
0,0,0,0,0,0,0,0,0,0,0,0,0,0,0,0,0,0,0,0,0,0,0,0,0,0,0,0,0,0,0,0,0,0,0,0,0,0,0,0,0,0,0,0,0,0,0,0,0,0,
2609,2610,2611,0,0,0,0,0,0,0,0,0,0,0,0,0,0,0,0,0,0,0,0,0,0,0,0,0,0,0,0,0,0,0,0,0,0,0,0,0,0,0,0,0,0,0,0,2609,2610,2611,
2617,2618,2619,0,0,0,0,0,0,0,0,0,0,0,0,0,0,0,0,0,0,0,0,0,0,0,0,0,0,0,0,0,0,0,0,0,0,0,0,0,0,0,0,0,0,0,0,2617,2618,2619,
0,0,0,0,0,0,0,0,0,0,0,0,0,0,0,0,0,0,0,0,2609,2610,2611,0,0,0,0,0,0,0,0,0,0,0,0,0,0,2609,2610,2611,0,0,0,0,0,0,0,0,0,0,
0,0,0,0,0,0,0,0,0,0,0,0,0,0,0,0,0,0,0,0,2617,2618,2619,0,0,0,0,0,0,0,0,0,0,0,0,0,0,2617,2618,2619,0,0,0,0,0,0,0,0,0,0,
2609,2610,2611,0,0,0,0,0,0,0,0,0,0,0,0,0,0,0,0,0,0,0,0,0,0,0,0,0,0,0,0,0,0,0,0,0,0,0,0,0,0,0,0,0,0,0,0,2609,2610,2611,
2617,2618,2619,0,0,0,0,0,0,0,0,0,0,0,0,0,0,0,0,0,0,0,0,0,0,0,0,0,0,0,0,0,0,0,0,0,0,0,0,0,0,0,0,0,0,0,0,2617,2618,2619,
0,0,0,0,0,0,0,0,0,0,0,0,0,0,0,0,0,0,0,0,0,0,0,0,0,0,0,0,0,0,0,0,0,0,0,0,0,0,0,0,0,0,0,0,0,0,0,0,0,0,
0,0,0,0,0,0,0,0,0,0,0,0,0,0,0,0,0,0,0,0,0,0,0,0,0,0,0,0,0,0,0,0,0,0,0,0,0,0,0,0,0,0,0,0,0,0,0,0,0,0,
2609,2610,2611,2609,2610,2611,2609,2610,2611,2609,2610,2611,0,0,0,0,0,0,0,2609,2610,2611,2609,2610,2611,0,0,0,0,0,0,0,0,0,0,0,2609,2610,2611,2609,2610,2611,2609,2610,2611,0,0,2609,2610,2611,
2617,2618,2619,2617,2618,2619,2617,2618,2619,2617,2618,2619,0,0,0,0,0,0,0,2617,2618,2619,2617,2618,2619,0,0,0,0,0,0,0,0,0,0,0,2617,2618,2619,2617,2618,2619,2617,2618,2619,0,0,2617,2618,2619
</data>
 </layer>
 <layer id="4" name="AbovePlayer" width="50" height="40">
  <data encoding="csv">
2593,2594,2595,2593,2594,2595,2593,2594,2595,2593,2594,2595,2593,2594,2595,2593,2594,2595,2593,2594,2595,2593,2594,2595,0,0,0,0,0,0,0,0,0,0,0,0,0,0,0,0,0,0,2593,2594,2595,0,0,2593,2594,2595,
2601,2602,2603,2601,2602,2603,2601,2602,2603,2601,2602,2603,2601,2602,2603,2601,2602,2603,2601,2602,2603,2601,2602,2603,0,0,0,0,0,0,0,0,0,0,0,0,0,0,0,0,0,0,2601,2602,2603,0,0,2601,2602,2603,
0,0,0,0,0,0,0,0,0,0,0,0,0,0,0,0,0,0,0,0,0,0,0,0,0,0,0,0,0,0,0,0,0,0,0,0,0,0,0,0,0,0,0,0,0,0,0,0,0,0,
0,0,0,0,0,0,0,0,0,0,0,0,0,0,0,0,0,0,0,0,0,0,0,0,0,0,0,0,0,0,0,0,0,0,0,0,0,0,0,0,0,0,0,0,0,0,0,0,0,0,
2593,2594,2595,0,0,0,0,0,0,0,0,0,0,0,0,0,0,0,0,0,0,0,0,0,0,0,0,0,0,0,0,0,0,0,0,0,0,0,0,0,0,0,0,0,0,0,0,2593,2594,2595,
2601,2602,2603,0,0,0,0,0,0,0,0,0,0,0,0,0,0,0,0,0,0,0,0,0,0,0,0,0,0,0,0,0,0,0,0,0,0,0,0,0,0,0,0,0,0,0,0,2601,2602,2603,
0,0,0,0,0,0,0,0,0,0,0,0,0,0,0,0,0,0,0,0,0,0,0,0,0,0,0,0,0,0,0,0,0,0,0,0,0,0,0,0,0,0,0,0,0,0,0,0,0,0,
0,0,0,0,0,0,0,0,0,0,0,0,0,0,0,0,0,0,0,0,0,0,0,0,0,0,0,0,0,0,0,0,0,0,0,0,0,0,0,0,0,0,0,0,0,0,0,0,0,0,
2593,2594,2595,0,0,0,0,0,0,0,0,0,0,0,0,0,0,0,0,0,0,0,0,0,0,0,0,0,0,0,0,0,0,0,0,0,0,0,0,0,0,0,0,0,0,0,0,2593,2594,2595,
2601,2602,2603,0,0,0,0,0,0,0,0,0,0,0,0,0,0,0,0,0,0,0,0,0,0,0,0,0,0,0,0,0,0,0,0,0,0,0,0,0,0,0,0,0,0,0,0,2601,2602,2603,
0,0,0,0,0,0,0,0,0,0,0,0,0,0,0,0,0,0,0,0,0,0,0,0,0,0,0,0,0,0,0,0,0,0,0,0,0,0,0,0,0,0,0,0,0,0,0,0,0,0,
0,0,0,0,0,0,0,0,0,0,0,0,0,0,0,0,0,0,0,0,0,0,0,0,0,0,0,0,0,0,0,0,0,0,0,0,0,0,0,0,0,0,0,0,0,0,0,0,0,0,
2593,2594,2595,0,0,0,0,0,0,0,0,0,0,0,0,0,0,0,0,0,0,0,0,0,0,0,0,0,0,0,0,0,0,0,0,0,0,0,0,0,0,0,0,0,0,0,0,2593,2594,2595,
2601,2602,2603,0,0,0,0,0,0,0,0,0,0,0,0,0,0,0,0,0,0,0,0,0,0,0,0,0,0,0,0,0,0,0,0,0,0,0,0,0,0,0,0,0,0,0,0,2601,2602,2603,
0,0,0,0,0,0,0,0,0,0,0,0,0,0,0,0,0,0,2593,2594,2595,0,0,0,0,0,0,0,0,0,0,0,0,0,0,0,0,0,0,0,0,0,0,0,0,0,0,0,0,0,
0,0,0,0,0,0,0,0,0,0,0,0,0,0,0,0,0,0,2601,2602,2603,0,0,0,0,0,0,0,0,0,0,0,0,0,0,0,0,0,0,0,0,0,0,0,0,0,0,0,0,0,
2593,2594,2595,0,0,0,0,0,0,0,0,0,0,0,0,0,0,0,0,0,0,0,0,0,0,0,0,0,0,0,0,0,0,0,0,0,0,0,0,0,0,0,0,0,0,0,0,2593,2594,2595,
2601,2602,2603,0,0,0,0,0,0,0,0,0,0,0,0,0,0,0,0,0,0,0,0,0,0,0,0,0,0,0,0,0,0,0,0,0,0,0,0,0,0,0,0,0,0,0,0,2601,2602,2603,
0,0,0,0,0,2593,2594,2595,0,0,0,0,0,0,0,0,0,0,0,0,0,0,0,0,0,0,0,0,0,0,0,0,0,0,0,0,0,0,0,0,0,0,0,0,0,0,0,0,0,0,
0,0,0,0,0,2601,2602,2603,0,0,0,0,0,0,0,0,0,0,0,0,0,0,0,0,0,0,0,0,0,0,0,0,0,0,0,0,0,0,0,0,0,0,0,0,0,0,0,0,0,0,
2593,2594,2595,0,0,0,0,0,0,0,0,0,0,0,0,0,0,0,0,0,0,0,0,0,0,0,0,0,0,0,0,0,0,0,0,0,0,0,0,0,0,0,0,0,0,0,0,2593,2594,2595,
2601,2602,2603,0,0,0,0,0,0,0,0,0,0,0,0,0,0,0,0,0,0,0,0,0,0,0,0,0,0,0,0,0,0,0,0,0,0,0,0,0,0,0,0,0,2593,2594,2595,2601,2602,2603,
0,0,0,0,0,0,0,0,0,0,0,0,0,0,0,0,0,0,0,0,0,0,0,0,0,0,0,0,0,0,0,0,0,0,0,0,0,0,0,0,0,0,0,0,2601,2602,2603,0,0,0,
0,0,0,0,0,0,0,0,0,0,0,0,0,0,0,0,0,0,0,0,0,0,0,0,0,0,0,0,0,0,0,0,0,0,0,0,0,0,0,0,0,0,0,0,0,0,0,0,0,0,
2593,2594,2595,0,0,0,0,0,0,0,0,0,0,0,0,0,0,0,0,0,0,0,0,0,0,0,0,0,0,0,0,0,0,0,0,0,0,0,0,0,0,0,0,0,0,0,0,2593,2594,2595,
2601,2602,2603,0,0,0,0,0,0,0,0,0,0,0,0,0,0,0,0,0,0,0,0,0,0,0,0,0,0,0,0,0,0,0,0,0,0,0,0,0,0,0,0,0,0,0,0,2601,2602,2603,
0,0,0,0,0,0,0,0,0,0,0,0,0,0,0,0,0,0,0,0,0,0,0,0,0,0,0,0,0,0,0,0,0,0,0,0,0,0,0,0,0,0,0,0,0,0,0,0,0,0,
0,0,0,0,0,0,0,0,0,0,0,0,0,0,0,0,0,0,0,0,0,0,0,0,0,0,0,0,0,0,0,0,0,0,0,0,0,0,0,0,0,0,0,0,0,0,0,0,0,0,
2593,2594,2595,0,0,0,0,0,0,0,0,0,0,0,0,0,0,0,0,0,0,0,0,0,0,0,0,0,0,0,0,0,0,0,0,0,0,0,0,0,0,0,0,0,0,0,0,2593,2594,2595,
2601,2602,2603,0,0,0,0,0,0,0,0,0,0,0,0,0,0,0,0,0,0,0,0,0,0,0,0,0,0,0,0,0,0,0,0,0,0,0,0,0,0,0,0,0,0,0,0,2601,2602,2603,
0,0,0,0,0,0,0,0,0,0,0,0,0,0,0,0,0,0,0,0,2593,2594,2595,0,0,0,0,0,0,0,0,0,0,0,0,0,0,2593,2594,2595,0,0,0,0,0,0,0,0,0,0,
0,0,0,0,0,0,0,0,0,0,0,0,0,0,0,0,0,0,0,0,2601,2602,2603,0,0,0,0,0,0,0,0,0,0,0,0,0,0,2601,2602,2603,0,0,0,0,0,0,0,0,0,0,
2593,2594,2595,0,0,0,0,0,0,0,0,0,0,0,0,0,0,0,0,0,0,0,0,0,0,0,0,0,0,0,0,0,0,0,0,0,0,0,0,0,0,0,0,0,0,0,0,2593,2594,2595,
2601,2602,2603,0,0,0,0,0,0,0,0,0,0,0,0,0,0,0,0,0,0,0,0,0,0,0,0,0,0,0,0,0,0,0,0,0,0,0,0,0,0,0,0,0,0,0,0,2601,2602,2603,
0,0,0,0,0,0,0,0,0,0,0,0,0,0,0,0,0,0,0,0,0,0,0,0,0,0,0,0,0,0,0,0,0,0,0,0,0,0,0,0,0,0,0,0,0,0,0,0,0,0,
0,0,0,0,0,0,0,0,0,0,0,0,0,0,0,0,0,0,0,0,0,0,0,0,0,0,0,0,0,0,0,0,0,0,0,0,0,0,0,0,0,0,0,0,0,0,0,0,0,0,
2593,2594,2595,2593,2594,2595,2593,2594,2595,2593,2594,2595,0,0,0,0,0,0,0,2593,2594,2595,2593,2594,2595,0,0,0,0,0,0,0,0,0,0,0,2593,2594,2595,2593,2594,2595,2593,2594,2595,0,0,2593,2594,2595,
2601,2602,2603,2601,2602,2603,2601,2602,2603,2601,2602,2603,0,0,0,0,0,0,0,2601,2602,2603,2601,2602,2603,0,0,0,0,0,0,0,0,0,0,0,2601,2602,2603,2601,2602,2603,2601,2602,2603,0,0,2601,2602,2603,
0,0,0,0,0,0,0,0,0,0,0,0,0,0,0,0,0,0,0,0,0,0,0,0,0,0,0,0,0,0,0,0,0,0,0,0,0,0,0,0,0,0,0,0,0,0,0,0,0,0,
0,0,0,0,0,0,0,0,0,0,0,0,0,0,0,0,0,0,0,0,0,0,0,0,0,0,0,0,0,0,0,0,0,0,0,0,0,0,0,0,0,0,0,0,0,0,0,0,0,0
</data>
 </layer>
 <layer id="5" name="Collision" width="50" height="40" visible="0" opacity="0.45">
  <data encoding="csv">
9729,9729,9729,9729,9729,9729,9729,9729,9729,9729,9729,9729,9729,9729,9729,9729,9729,9729,9729,9729,9729,9729,9729,9729,9729,9729,9729,9729,9729,9729,9729,9729,9729,9729,9729,9729,0,0,0,0,0,9729,9729,9729,9729,9729,9729,9729,9729,9729,
9729,9729,9729,9729,9729,9729,9729,9729,9729,9729,9729,9729,9729,9729,9729,9729,9729,9729,9729,9729,9729,9729,9729,9729,0,9729,9729,9729,9729,9729,9729,9729,9729,9729,9729,0,0,0,0,0,0,0,9729,9729,9729,0,0,9729,9729,9729,
9729,9729,9729,9729,9729,9729,9729,9729,9729,9729,9729,9729,9729,9729,9729,9729,9729,9729,9729,9729,9729,9729,9729,9729,0,9729,9729,9729,9729,9729,9729,9729,9729,9729,9729,0,0,0,0,0,0,0,9729,9729,9729,0,0,9729,9729,9729,
9729,9729,9729,9729,9729,9729,9729,9729,9729,9729,9729,9729,9729,9729,9729,9729,9729,9729,9729,9729,9729,9729,9729,9729,0,9729,9729,9729,9729,9729,9729,9729,9729,9729,9729,0,0,0,0,0,0,0,9729,9729,9729,0,0,9729,9729,9729,
9729,9729,9729,0,0,0,0,0,0,0,0,0,0,0,0,0,0,0,0,0,0,0,0,0,0,9729,9729,9729,9729,9729,9729,9729,9729,9729,9729,0,0,0,0,0,0,0,0,0,0,0,0,9729,9729,9729,
9729,9729,9729,0,0,0,0,0,0,0,0,0,0,0,0,0,0,0,0,0,0,0,0,0,0,9729,9729,9729,9729,9729,9729,9729,9729,9729,9729,0,0,0,0,0,0,0,0,0,0,0,0,9729,9729,9729,
9729,9729,9729,0,0,0,0,0,0,0,0,0,0,0,0,0,0,0,0,0,0,0,0,0,0,9729,9729,9729,9729,9729,9729,9729,9729,9729,9729,0,0,0,0,0,0,0,0,0,0,0,0,9729,9729,9729,
9729,9729,9729,0,0,0,0,0,0,0,0,0,0,0,0,0,0,0,0,0,0,0,0,0,0,9729,9729,9729,9729,9729,9729,9729,9729,9729,9729,0,0,0,0,0,0,0,0,0,0,0,0,9729,9729,9729,
9729,9729,9729,0,0,0,0,0,0,0,0,0,0,0,0,0,0,0,0,0,0,0,0,0,0,9729,9729,9729,9729,9729,9729,9729,9729,9729,9729,0,0,0,0,0,0,0,0,0,0,0,0,9729,9729,9729,
9729,9729,9729,0,0,0,0,0,0,0,0,0,0,0,0,0,0,0,0,0,0,0,0,0,0,9729,9729,9729,9729,9729,9729,9729,9729,9729,9729,0,0,0,0,0,0,0,0,0,0,0,0,9729,9729,9729,
9729,9729,9729,0,0,0,0,0,0,0,0,0,0,0,0,0,0,0,0,0,0,0,0,0,0,9729,9729,9729,9729,9729,9729,9729,9729,9729,9729,0,0,0,0,0,0,0,0,0,0,0,0,9729,9729,9729,
9729,9729,9729,0,0,0,0,0,0,0,0,0,0,0,0,0,0,0,0,0,0,0,0,0,0,9729,9729,9729,9729,9729,9729,9729,9729,9729,9729,0,0,0,0,0,0,0,0,0,0,0,0,9729,9729,9729,
9729,9729,9729,0,0,0,0,0,0,0,0,0,0,0,0,0,0,0,0,0,0,0,0,0,0,9729,9729,9729,9729,9729,9729,9729,9729,9729,9729,0,0,0,0,0,0,0,0,0,0,0,0,9729,9729,9729,
9729,9729,9729,0,0,0,0,0,0,0,0,0,0,0,0,0,0,0,0,0,0,0,0,0,0,9729,9729,9729,9729,9729,9729,9729,9729,9729,9729,0,0,0,0,0,0,0,0,0,0,0,0,9729,9729,9729,
9729,9729,9729,0,0,0,0,0,0,0,0,0,0,0,0,0,0,0,9729,9729,9729,0,0,0,0,9729,9729,9729,9729,9729,9729,9729,9729,9729,9729,0,0,0,0,0,0,0,0,0,0,0,0,9729,9729,9729,
9729,9729,9729,0,0,0,0,0,0,0,0,0,0,0,0,0,0,0,9729,9729,9729,0,0,0,0,9729,9729,9729,9729,9729,9729,9729,9729,9729,9729,0,0,0,0,0,0,0,0,0,0,0,0,9729,9729,9729,
9729,9729,9729,0,0,0,0,0,0,0,0,0,0,0,0,0,0,0,9729,9729,9729,0,0,0,0,9729,9729,9729,9729,9729,9729,9729,9729,9729,9729,0,0,0,0,0,0,0,0,0,0,0,0,9729,9729,9729,
9729,9729,9729,0,0,0,0,0,0,0,0,0,0,0,0,0,0,0,9729,9729,9729,0,0,0,0,9729,9729,9729,9729,9729,9729,9729,9729,9729,9729,0,0,0,0,0,0,0,0,0,0,0,0,9729,9729,9729,
9729,9729,9729,0,0,9729,9729,9729,0,0,0,0,0,0,0,0,0,0,0,0,0,0,0,0,0,0,0,0,0,0,0,0,0,0,0,0,0,0,0,0,0,0,0,0,0,0,0,9729,9729,9729,
9729,9729,9729,0,0,9729,9729,9729,0,0,0,0,0,0,0,0,0,0,0,0,0,0,0,0,0,0,0,0,0,0,0,0,0,0,0,0,0,0,0,0,0,0,0,0,0,0,0,9729,9729,9729,
9729,9729,9729,0,0,9729,9729,9729,0,0,0,0,0,0,0,0,0,0,0,0,0,0,0,0,0,0,0,0,0,0,0,0,0,0,0,0,0,0,0,0,0,0,0,0,0,0,0,9729,9729,9729,
9729,9729,9729,0,0,9729,9729,9729,0,0,0,0,0,0,0,0,0,0,0,0,0,0,0,0,0,0,0,0,0,0,0,0,0,0,0,0,0,0,0,0,0,0,0,0,9729,9729,9729,9729,9729,9729,
9729,9729,9729,0,0,0,0,0,0,0,0,0,0,0,0,0,0,0,0,0,0,0,0,0,0,0,0,0,0,0,0,0,0,0,0,0,0,0,0,0,0,0,0,0,9729,9729,9729,9729,9729,9729,
9729,9729,9729,0,0,0,0,0,0,0,0,0,0,0,0,0,0,0,0,0,0,0,0,0,0,9729,9729,9729,9729,9729,9729,9729,9729,9729,9729,0,0,0,0,0,0,0,0,0,9729,9729,9729,9729,9729,9729,
9729,9729,9729,0,0,0,0,0,0,0,0,0,0,0,0,0,0,0,0,0,0,0,0,0,0,9729,9729,9729,9729,9729,9729,9729,9729,9729,9729,0,0,0,0,0,0,0,0,0,9729,9729,9729,9729,9729,9729,
9729,9729,9729,0,0,0,0,0,0,0,0,0,0,0,0,0,0,0,0,0,0,0,0,0,0,9729,9729,9729,9729,9729,9729,9729,9729,9729,9729,0,0,0,0,0,0,0,0,0,0,0,0,9729,9729,9729,
9729,9729,9729,0,0,0,0,0,0,0,0,0,0,0,0,0,0,0,0,0,0,0,0,0,0,9729,9729,9729,9729,9729,9729,9729,9729,9729,9729,0,0,0,0,0,0,0,0,0,0,0,0,9729,9729,9729,
9729,9729,9729,0,0,0,0,0,0,0,0,0,0,0,0,0,0,0,0,0,0,0,0,0,0,9729,9729,9729,9729,9729,9729,9729,9729,9729,9729,0,0,0,0,0,0,0,0,0,0,0,0,9729,9729,9729,
9729,9729,9729,0,0,0,0,0,0,0,0,0,0,0,0,0,0,0,0,0,0,0,0,0,0,9729,9729,9729,9729,9729,9729,9729,9729,9729,9729,0,0,0,0,0,0,0,0,0,0,0,0,9729,9729,9729,
9729,9729,9729,0,0,0,0,0,0,0,0,0,0,0,0,0,0,0,0,0,0,0,0,0,0,9729,9729,9729,9729,9729,9729,9729,9729,9729,9729,0,0,0,0,0,0,0,0,0,0,0,0,9729,9729,9729,
9729,9729,9729,0,0,0,0,0,0,0,0,0,0,0,0,0,0,0,0,0,9729,9729,9729,0,0,9729,9729,9729,9729,9729,9729,9729,9729,9729,9729,0,0,9729,9729,9729,0,0,0,0,0,0,0,9729,9729,9729,
9729,9729,9729,0,0,0,0,0,0,0,0,0,0,0,0,0,0,0,0,0,9729,9729,9729,0,0,9729,9729,9729,9729,9729,9729,9729,9729,9729,9729,0,0,9729,9729,9729,0,0,0,0,0,0,0,9729,9729,9729,
9729,9729,9729,0,0,0,0,0,0,0,0,0,0,0,0,0,0,0,0,0,9729,9729,9729,0,0,9729,9729,9729,9729,9729,9729,9729,9729,9729,9729,0,0,9729,9729,9729,0,0,0,0,0,0,0,9729,9729,9729,
9729,9729,9729,0,0,0,0,0,0,0,0,0,0,0,0,0,0,0,0,0,9729,9729,9729,0,0,9729,9729,9729,9729,9729,9729,9729,9729,9729,9729,0,0,9729,9729,9729,0,0,0,0,0,0,0,9729,9729,9729,
9729,9729,9729,0,0,0,0,0,0,0,0,0,0,0,0,0,0,0,0,0,0,0,0,0,0,9729,9729,9729,9729,9729,9729,9729,9729,9729,9729,0,0,0,0,0,0,0,0,0,0,0,0,9729,9729,9729,
9729,9729,9729,0,0,0,0,0,0,0,0,0,0,0,0,0,0,0,0,0,0,0,0,0,0,9729,9729,9729,9729,9729,9729,9729,9729,9729,9729,0,0,0,0,0,0,0,0,0,0,0,0,9729,9729,9729,
9729,9729,9729,9729,9729,9729,9729,9729,9729,9729,9729,9729,0,0,0,0,0,0,0,9729,9729,9729,9729,9729,9729,9729,9729,9729,9729,9729,9729,9729,9729,9729,9729,0,9729,9729,9729,9729,9729,9729,9729,9729,9729,0,0,9729,9729,9729,
9729,9729,9729,9729,9729,9729,9729,9729,9729,9729,9729,9729,0,0,0,0,0,0,0,9729,9729,9729,9729,9729,9729,9729,9729,9729,9729,9729,9729,9729,9729,9729,9729,0,9729,9729,9729,9729,9729,9729,9729,9729,9729,0,0,9729,9729,9729,
9729,9729,9729,9729,9729,9729,9729,9729,9729,9729,9729,9729,0,0,0,0,0,0,0,9729,9729,9729,9729,9729,9729,9729,9729,9729,9729,9729,9729,9729,9729,9729,9729,0,9729,9729,9729,9729,9729,9729,9729,9729,9729,0,0,9729,9729,9729,
9729,9729,9729,9729,9729,9729,9729,9729,9729,9729,9729,9729,9729,9729,0,0,0,9729,9729,9729,9729,9729,9729,9729,9729,9729,9729,9729,9729,9729,9729,9729,9729,9729,9729,9729,9729,9729,9729,9729,9729,9729,9729,9729,9729,9729,9729,9729,9729,9729
</data>
 </layer>
 <objectgroup id="6" name="Objects" locked="1">
  <object id="1" name="playerSpawn" type="spawn" x="240" y="592"/>
  <object id="2" name="town02Entrance" type="mapSpawn" x="240" y="592"/>
  <object id="3" name="returnTown02" type="mapExit" x="224" y="624" width="48" height="16">
   <properties>
    <property name="targetMapId" value="town-02"/>
    <property name="targetSpawn" value="route02Entrance"/>
   </properties>
  </object>
  <object id="4" name="city01Entrance" type="mapSpawn" x="608" y="48"/>
  <object id="5" name="enterCity01" type="mapExit" x="576" y="0" width="80" height="16">
   <properties>
    <property name="targetMapId" value="city-01"/>
    <property name="targetSpawn" value="route02Entrance"/>
   </properties>
  </object>
  <object id="13" name="route02YoungsterDiego" type="npc" x="240" y="512">
   <properties>
    <property name="direction" value="down"/>
    <property name="interactionType" value="trainer-battle"/>
    <property name="trainerBattleId" value="youngster-diego"/>
    <property name="sightRangeTiles" type="int" value="4"/>
   </properties>
  </object>
  <object id="14" name="route02PicnickerValeria" type="npc" x="320" y="400">
   <properties>
    <property name="direction" value="left"/>
    <property name="interactionType" value="trainer-battle"/>
    <property name="trainerBattleId" value="picnicker-valeria"/>
    <property name="sightRangeTiles" type="int" value="5"/>
   </properties>
  </object>
  <object id="15" name="route02HikerMarcos" type="npc" x="496" y="304">
   <properties>
    <property name="direction" value="left"/>
    <property name="interactionType" value="trainer-battle"/>
    <property name="trainerBattleId" value="hiker-marcos"/>
    <property name="sightRangeTiles" type="int" value="5"/>
   </properties>
  </object>
  <object id="16" name="route02AceTrainerLucia" type="npc" x="624" y="176">
   <properties>
    <property name="direction" value="down"/>
    <property name="interactionType" value="trainer-battle"/>
    <property name="trainerBattleId" value="ace-trainer-lucia"/>
    <property name="sightRangeTiles" type="int" value="5"/>
   </properties>
  </object>
 </objectgroup>
 <objectgroup id="7" name="EncounterZones">
  <object id="6" name="route02-grass-zone-01" type="encounter-zone" x="48" y="80" width="128" height="80">
   <properties>
    <property name="encounterTableId" value="mixed-town-01"/>
   </properties>
  </object>
  <object id="7" name="route02-grass-zone-02" type="encounter-zone" x="208" y="112" width="128" height="80">
   <properties>
    <property name="encounterTableId" value="mixed-town-02"/>
   </properties>
  </object>
  <object id="8" name="route02-grass-zone-03" type="encounter-zone" x="48" y="464" width="128" height="80">
   <properties>
    <property name="encounterTableId" value="mixed-town-01"/>
   </properties>
  </object>
  <object id="9" name="route02-grass-zone-04" type="encounter-zone" x="640" y="448" width="112" height="80">
   <properties>
    <property name="encounterTableId" value="mixed-town-02"/>
   </properties>
  </object>
 </objectgroup>
</map>
